public/MilenaL.svg

<svg width="142" height="36" viewBox="0 0 142 36" fill="none" xmlns="http://www.w3.org/2000/svg">
<path d="M0.46 34.5V34.02L1.42 33.684C2.508 33.332 3.052 32.42 3.052 30.948V6.372C3.052 5.732 2.972 5.22 2.812 4.836C2.684 4.452 2.316 4.132 1.708 3.876L0.46 3.3V2.82H9.724L18.604 26.052L26.956 2.82H36.412V3.3L35.644 3.588C35.036 3.812 34.62 4.132 34.396 4.548C34.172 4.932 34.06 5.444 34.06 6.084V31.188C34.06 31.828 34.14 32.324 34.3 32.676C34.46 33.028 34.844 33.332 35.452 33.588L36.412 34.02V34.5H24.46V34.02L25.468 33.588C26.076 33.332 26.46 33.028 26.62 32.676C26.78 32.324 26.86 31.828 26.86 31.188V20.388L26.956 6.66L16.924 34.5H14.524L4.06 6.996L4.204 18.948V31.044C4.204 31.748 4.3 32.324 4.492 32.772C4.716 33.188 5.132 33.492 5.74 33.684L6.796 34.02V34.5H0.46ZM44.1888 8.196C43.1008 8.196 42.1728 7.86 41.4048 7.188C40.6688 6.484 40.3008 5.604 40.3008 4.548C40.3008 3.46 40.6688 2.58 41.4048 1.908C42.1728 1.236 43.1008 0.899998 44.1888 0.899998C45.2768 0.899998 46.1888 1.236 46.9248 1.908C47.6608 2.58 48.0288 3.46 48.0288 4.548C48.0288 5.604 47.6608 6.484 46.9248 7.188C46.1888 7.86 45.2768 8.196 44.1888 8.196ZM38.5248 34.5V34.02L39.1968 33.828C39.8368 33.636 40.2688 33.348 40.4928 32.964C40.7488 32.58 40.8768 32.068 40.8768 31.428V16.404C40.8768 15.732 40.7488 15.236 40.4928 14.916C40.2688 14.564 39.8368 14.324 39.1968 14.196L38.5248 14.052V13.572L47.3088 10.74L47.7888 11.22L47.6448 18.036V31.476C47.6448 32.116 47.7568 32.628 47.9808 33.012C48.2368 33.396 48.6688 33.684 49.2768 33.876L49.7568 34.02V34.5H38.5248ZM52.0259 34.5V34.02L52.6019 33.828C53.7539 33.444 54.3299 32.644 54.3299 31.428V5.748C54.3299 5.108 54.2019 4.628 53.9459 4.308C53.6899 3.956 53.2419 3.7 52.6019 3.54L51.9779 3.396V2.916L60.7619 0.851998L61.3379 1.284L61.1459 8.004V24.42C61.1459 25.604 61.1459 26.788 61.1459 27.972C61.1779 29.124 61.1939 30.276 61.1939 31.428C61.1939 32.068 61.3219 32.596 61.5779 33.012C61.8339 33.396 62.2659 33.684 62.8739 33.876L63.4979 34.02V34.5H52.0259ZM77.6643 10.692C79.7443 10.692 81.5203 11.124 82.9923 11.988C84.4643 12.82 85.5843 13.972 86.3523 15.444C87.1523 16.884 87.5523 18.532 87.5523 20.388C87.5523 20.74 87.5363 21.108 87.5043 21.492C87.4723 21.844 87.4083 22.164 87.3123 22.452H73.0083C73.0403 25.908 73.6483 28.404 74.8323 29.94C76.0483 31.444 77.8403 32.196 80.2083 32.196C81.8083 32.196 83.1043 31.94 84.0963 31.428C85.0883 30.916 86.0163 30.164 86.8803 29.172L87.3603 29.604C86.3683 31.364 85.0403 32.74 83.3763 33.732C81.7443 34.724 79.7763 35.22 77.4723 35.22C75.2003 35.22 73.1843 34.74 71.4243 33.78C69.6643 32.788 68.2883 31.38 67.2963 29.556C66.3043 27.732 65.8083 25.556 65.8083 23.028C65.8083 20.404 66.3843 18.18 67.5363 16.356C68.6883 14.5 70.1603 13.092 71.9523 12.132C73.7763 11.172 75.6803 10.692 77.6643 10.692ZM77.5203 11.652C76.5923 11.652 75.7923 11.94 75.1203 12.516C74.4803 13.06 73.9683 14.052 73.5843 15.492C73.2323 16.9 73.0403 18.9 73.0083 21.492H81.2163C81.5363 18.004 81.4083 15.492 80.8323 13.956C80.2563 12.42 79.1523 11.652 77.5203 11.652ZM89.9444 34.5V34.02L90.6164 33.828C91.7364 33.508 92.2964 32.724 92.2964 31.476V16.452C92.2964 15.748 92.1844 15.236 91.9604 14.916C91.7364 14.564 91.3044 14.324 90.6644 14.196L89.9444 14.004V13.524L98.1524 10.74L98.6324 11.22L99.0164 14.1C100.136 13.108 101.4 12.292 102.808 11.652C104.216 11.012 105.608 10.692 106.984 10.692C109.096 10.692 110.712 11.268 111.832 12.42C112.984 13.572 113.56 15.332 113.56 17.7V31.524C113.56 32.772 114.168 33.556 115.384 33.876L115.816 34.02V34.5H104.488V34.02L105.112 33.828C106.232 33.476 106.792 32.692 106.792 31.476V16.164C106.792 14.116 105.768 13.092 103.72 13.092C102.312 13.092 100.776 13.796 99.1124 15.204V31.524C99.1124 32.772 99.6724 33.556 100.792 33.876L101.224 34.02V34.5H89.9444ZM124.421 35.22C122.565 35.22 120.997 34.692 119.717 33.636C118.469 32.58 117.845 31.06 117.845 29.076C117.845 27.572 118.613 26.196 120.149 24.948C121.685 23.668 124.101 22.708 127.397 22.068C127.909 21.972 128.485 21.876 129.125 21.78C129.765 21.652 130.437 21.524 131.141 21.396V17.604C131.141 15.428 130.869 13.908 130.325 13.044C129.813 12.148 128.997 11.7 127.877 11.7C127.109 11.7 126.501 11.956 126.053 12.468C125.605 12.948 125.317 13.796 125.189 15.012L125.093 15.54C125.029 16.916 124.693 17.924 124.085 18.564C123.477 19.204 122.725 19.524 121.829 19.524C120.997 19.524 120.309 19.268 119.765 18.756C119.221 18.244 118.949 17.556 118.949 16.692C118.949 15.38 119.397 14.276 120.293 13.38C121.221 12.484 122.437 11.812 123.941 11.364C125.445 10.916 127.077 10.692 128.837 10.692C131.685 10.692 133.877 11.396 135.413 12.804C136.981 14.18 137.765 16.436 137.765 19.572V30.18C137.765 31.62 138.437 32.34 139.781 32.34H140.837L141.269 32.724C140.661 33.492 139.989 34.084 139.253 34.5C138.549 34.916 137.541 35.124 136.229 35.124C134.821 35.124 133.701 34.804 132.869 34.164C132.069 33.492 131.541 32.612 131.285 31.524C130.325 32.548 129.333 33.428 128.309 34.164C127.317 34.868 126.021 35.22 124.421 35.22ZM127.349 32.292C127.989 32.292 128.581 32.148 129.125 31.86C129.701 31.54 130.373 31.06 131.141 30.42V22.356C130.821 22.42 130.501 22.484 130.181 22.548C129.861 22.612 129.493 22.676 129.077 22.74C127.605 23.124 126.421 23.78 125.525 24.708C124.661 25.604 124.229 26.82 124.229 28.356C124.229 29.668 124.533 30.66 125.141 31.332C125.749 31.972 126.485 32.292 127.349 32.292Z" fill="#1E1E1E"/>
</svg>

<svg xmlns="http://www.w3.org/2000/svg" width="142" height="36" fill="none" xmlns:v="https://vecta.io/nano"><path d="M.46 34.5v-.48l.96-.336c1.088-.352 1.632-1.264 1.632-2.736V6.372c0-.64-.08-1.152-.24-1.536-.128-.384-.496-.704-1.104-.96L.46 3.3v-.48h9.264l8.88 23.232L26.956 2.82h9.456v.48l-.768.288c-.608.224-1.024.544-1.248.96-.224.384-.336.896-.336 1.536v25.104c0 .64.08 1.136.24 1.488s.544.656 1.152.912l.96.432v.48H24.46v-.48l1.008-.432c.608-.256.992-.56 1.152-.912s.24-.848.24-1.488v-10.8l.096-13.728L16.924 34.5h-2.4L4.06 6.996l.144 11.952v12.096c0 .704.096 1.28.288 1.728.224.416.64.72 1.248.912l1.056.336v.48H.46zM44.189 8.196c-1.088 0-2.016-.336-2.784-1.008-.736-.704-1.104-1.584-1.104-2.64 0-1.088.368-1.968 1.104-2.64C42.173 1.236 43.101.9 44.189.9s2 .336 2.736 1.008 1.104 1.552 1.104 2.64c0 1.056-.368 1.936-1.104 2.64-.736.672-1.648 1.008-2.736 1.008zM38.525 34.5v-.48l.672-.192c.64-.192 1.072-.48 1.296-.864.256-.384.384-.896.384-1.536V16.404c0-.672-.128-1.168-.384-1.488-.224-.352-.656-.592-1.296-.72l-.672-.144v-.48l8.784-2.832.48.48-.144 6.816v13.44c0 .64.112 1.152.336 1.536.256.384.688.672 1.296.864l.48.144v.48H38.525zm13.501 0v-.48l.576-.192c1.152-.384 1.728-1.184 1.728-2.4V5.748c0-.64-.128-1.12-.384-1.44-.256-.352-.704-.608-1.344-.768l-.624-.144v-.48L60.762.852l.576.432-.192 6.72V24.42v3.552l.048 3.456c0 .64.128 1.168.384 1.584.256.384.688.672 1.296.864l.624.144v.48H52.026zm25.638-23.808c2.08 0 3.856.432 5.328 1.296a8.32 8.32 0 0 1 3.36 3.456c.8 1.44 1.2 3.088 1.2 4.944l-.048 1.104a4.25 4.25 0 0 1-.192.96H73.008c.032 3.456.64 5.952 1.824 7.488 1.216 1.504 3.008 2.256 5.376 2.256 1.6 0 2.896-.256 3.888-.768s1.92-1.264 2.784-2.256l.48.432c-.992 1.76-2.32 3.136-3.984 4.128-1.632.992-3.6 1.488-5.904 1.488-2.272 0-4.288-.48-6.048-1.44-1.76-.992-3.136-2.4-4.128-4.224s-1.488-4-1.488-6.528c0-2.624.576-4.848 1.728-6.672 1.152-1.856 2.624-3.264 4.416-4.224 1.824-.96 3.728-1.44 5.712-1.44zm-.144.96c-.928 0-1.728.288-2.4.864-.64.544-1.152 1.536-1.536 2.976-.352 1.408-.544 3.408-.576 6h8.208c.32-3.488.192-6-.384-7.536s-1.68-2.304-3.312-2.304zM89.944 34.5v-.48l.672-.192c1.12-.32 1.68-1.104 1.68-2.352V16.452c0-.704-.112-1.216-.336-1.536-.224-.352-.656-.592-1.296-.72l-.72-.192v-.48l8.208-2.784.48.48.384 2.88a15.1 15.1 0 0 1 3.792-2.448c1.408-.64 2.8-.96 4.176-.96 2.112 0 3.728.576 4.848 1.728 1.152 1.152 1.728 2.912 1.728 5.28v13.824c0 1.248.608 2.032 1.824 2.352l.432.144v.48h-11.328v-.48l.624-.192c1.12-.352 1.68-1.136 1.68-2.352V16.164c0-2.048-1.024-3.072-3.072-3.072-1.408 0-2.944.704-4.608 2.112v16.32c0 1.248.56 2.032 1.68 2.352l.432.144v.48h-11.28zm34.477.72c-1.856 0-3.424-.528-4.704-1.584-1.248-1.056-1.872-2.576-1.872-4.56 0-1.504.768-2.88 2.304-4.128 1.536-1.28 3.952-2.24 7.248-2.88l1.728-.288 2.016-.384v-3.792c0-2.176-.272-3.696-.816-4.56-.512-.896-1.328-1.344-2.448-1.344-.768 0-1.376.256-1.824.768-.448.48-.736 1.328-.864 2.544l-.096.528c-.064 1.376-.4 2.384-1.008 3.024s-1.36.96-2.256.96c-.832 0-1.52-.256-2.064-.768s-.816-1.2-.816-2.064c0-1.312.448-2.416 1.344-3.312.928-.896 2.144-1.568 3.648-2.016s3.136-.672 4.896-.672c2.848 0 5.04.704 6.576 2.112 1.568 1.376 2.352 3.632 2.352 6.768V30.18c0 1.44.672 2.16 2.016 2.16h1.056l.432.384c-.608.768-1.28 1.36-2.016 1.776-.704.416-1.712.624-3.024.624-1.408 0-2.528-.32-3.36-.96-.8-.672-1.328-1.552-1.584-2.64-.96 1.024-1.952 1.904-2.976 2.64-.992.704-2.288 1.056-3.888 1.056zm2.928-2.928c.64 0 1.232-.144 1.776-.432.576-.32 1.248-.8 2.016-1.44v-8.064l-.96.192-1.104.192c-1.472.384-2.656 1.04-3.552 1.968-.864.896-1.296 2.112-1.296 3.648 0 1.312.304 2.304.912 2.976.608.64 1.344.96 2.208.96z" fill="#1e1e1e"/></svg>
